modules/linea-weather/icons/weather-waning-gibbous.svg

<svg xmlns="http://www.w3.org/2000/svg" width="64" height="64" viewBox="0 0 64 64"><circle fill="none" stroke="#000" stroke-width="2" stroke-miterlimit="10" cx="32" cy="32" r="31"/><path fill="none" stroke="#000" stroke-width="2" stroke-miterlimit="10" d="M23 2c13.242 3.528 22 15.646 22 30 0 14.355-8.756 26.473-22 30m7-3h17m-10-6h18m-13-6h17m-15-6h18m-17-6h18m-18-6h18m-19-6h18m-21-6h18m-22-6h18M30 5h17"/></svg>

<svg xmlns="http://www.w3.org/2000/svg" width="64" height="64" viewBox="0 0 64 64"><circle fill="none" stroke="#000" stroke-width="2" stroke-miterlimit="10" cx="32" cy="32" r="31"/><path fill="none" stroke="#000" stroke-width="2" stroke-miterlimit="10" d="M23 2c13.242 3.528 22 15.646 22 30 0 14.355-8.756 26.473-22 30M30 59h17M37 53h18M42 47h17M44 41h18M45 35h18M45 29h18M44 23h18M41 17h18M37 11h18M30 5h17"/></svg>
